src/assets/icon6.svg

<svg width="48" height="49" viewBox="0 0 48 49" fill="none" xmlns="http://www.w3.org/2000/svg">
<g clip-path="url(#clip0_212_743)">
<path d="M21.0063 12.5975C21.0063 12.3986 21.0853 12.2079 21.2259 12.0672C21.3666 11.9266 21.5573 11.8475 21.7563 11.8475H33.4859C33.6848 11.8475 33.8756 11.9266 34.0162 12.0672C34.1569 12.2079 34.2359 12.3986 34.2359 12.5975C34.2359 12.7965 34.1569 12.9872 34.0162 13.1279C33.8756 13.2685 33.6848 13.3475 33.4859 13.3475H21.7563C21.5573 13.3475 21.3666 13.2685 21.2259 13.1279C21.0853 12.9872 21.0063 12.7965 21.0063 12.5975ZM14.8232 14.197C14.9696 14.3435 15.1615 14.4167 15.3535 14.4167C15.5455 14.4167 15.7374 14.3435 15.8839 14.197L18.1829 11.898C18.2538 11.8286 18.3103 11.7459 18.349 11.6546C18.3877 11.5632 18.408 11.4651 18.4085 11.3659C18.4091 11.2668 18.3899 11.1684 18.3522 11.0767C18.3145 10.9849 18.259 10.9016 18.1888 10.8314C18.1187 10.7613 18.0353 10.7057 17.9436 10.668C17.8518 10.6303 17.7535 10.6112 17.6543 10.6118C17.5551 10.6123 17.457 10.6325 17.3657 10.6713C17.2744 10.71 17.1916 10.7665 17.1223 10.8374L15.3536 12.6062L14.7344 11.987C14.665 11.916 14.5823 11.8596 14.491 11.8208C14.3996 11.7821 14.3015 11.7619 14.2023 11.7613C14.1032 11.7608 14.0048 11.7799 13.9131 11.8176C13.8213 11.8553 13.738 11.9108 13.6678 11.981C13.5977 12.0511 13.5421 12.1345 13.5044 12.2262C13.4667 12.318 13.4476 12.4163 13.4482 12.5155C13.4487 12.6147 13.4689 12.7128 13.5077 12.8041C13.5464 12.8955 13.6029 12.9782 13.6738 13.0475L14.8232 14.197ZM21.7563 21.347H33.4859C33.6848 21.347 33.8756 21.2679 34.0162 21.1273C34.1569 20.9866 34.2359 20.7959 34.2359 20.597C34.2359 20.398 34.1569 20.2073 34.0162 20.0666C33.8756 19.926 33.6848 19.847 33.4859 19.847H21.7563C21.5573 19.847 21.3666 19.926 21.2259 20.0666C21.0853 20.2073 21.0063 20.398 21.0063 20.597C21.0063 20.7959 21.0853 20.9866 21.2259 21.1273C21.3666 21.2679 21.5573 21.347 21.7563 21.347ZM14.8232 22.2768C14.9696 22.4232 15.1615 22.4964 15.3535 22.4964C15.5455 22.4964 15.7374 22.4232 15.8839 22.2768L18.1829 19.9777C18.2538 19.9084 18.3103 19.8256 18.349 19.7343C18.3877 19.643 18.408 19.5449 18.4085 19.4457C18.4091 19.3465 18.3899 19.2482 18.3522 19.1564C18.3145 19.0647 18.259 18.9813 18.1888 18.9112C18.1187 18.841 18.0353 18.7855 17.9436 18.7478C17.8518 18.7101 17.7535 18.691 17.6543 18.6915C17.5551 18.6921 17.457 18.7123 17.3657 18.751C17.2744 18.7898 17.1916 18.8462 17.1223 18.9171L15.3536 20.6859L14.7344 20.0667C14.665 19.9958 14.5823 19.9393 14.491 19.9006C14.3996 19.8619 14.3015 19.8416 14.2023 19.8411C14.1032 19.8405 14.0048 19.8597 13.9131 19.8974C13.8213 19.9351 13.738 19.9906 13.6678 20.0607C13.5977 20.1309 13.5421 20.2142 13.5044 20.306C13.4667 20.3977 13.4476 20.4961 13.4482 20.5953C13.4487 20.6945 13.4689 20.7926 13.5077 20.8839C13.5464 20.9752 13.6029 21.0579 13.6738 21.1273L14.8232 22.2768ZM44.5702 35.5815L41.2536 37.4962C40.9155 37.6924 40.5316 37.7957 40.1407 37.7959C39.9454 37.7959 39.7488 37.7703 39.5549 37.7182C38.9761 37.5632 38.493 37.1931 38.1948 36.6767L38.104 36.5195L36.4263 37.3762C36.9279 38.1716 36.8553 39.1524 36.4145 39.9103C36.1929 40.2912 35.8762 40.6194 35.4968 40.8461C35.7168 41.2063 35.8338 41.6193 35.8322 42.059C35.8288 42.9706 35.3155 43.8521 34.5244 44.3049C34.0849 44.5565 33.5989 44.654 33.1122 44.5978C33.0873 45.0067 32.9613 45.4085 32.7556 45.7619C32.3204 46.5091 31.5192 47.0495 30.5977 47.0259C30.5879 47.4676 30.459 47.9047 30.2371 48.2856C29.812 49.0153 29.0387 49.5505 28.1435 49.5505C27.7358 49.5505 27.3028 49.4394 26.866 49.1851L24.8853 48.0317L24.4999 48.5795C24.0172 49.2658 23.3099 49.647 22.5346 49.647C22.4635 49.647 22.3919 49.6438 22.3198 49.6373C21.4306 49.5575 20.6118 48.9929 20.2182 48.1926C19.3828 48.6244 18.4112 48.4672 17.6935 47.9625C17.2301 47.6365 16.8672 47.162 16.7016 46.6156C16.0127 46.7662 15.291 46.5843 14.7263 46.187C14.023 45.6923 13.5514 44.8551 13.6496 43.9445C13.2074 43.898 12.7798 43.7316 12.417 43.4765C11.4116 42.7691 10.8799 41.3617 11.8093 40.0406L11.873 39.95L9.38669 36.845C9.08613 37.2733 8.64869 37.5807 8.13504 37.7183C7.944 37.7697 7.74703 37.7958 7.54919 37.796C7.16163 37.796 6.77979 37.6947 6.43619 37.4963L3.11969 35.5815C2.05038 34.9642 1.68269 33.592 2.30004 32.5226L8.12079 22.4407C8.29345 22.1412 8.53351 21.886 8.82194 21.6953V6.78711C8.82194 6.5882 8.90096 6.39743 9.04161 6.25678C9.18227 6.11613 9.37303 6.03711 9.57194 6.03711H38.1179C38.3168 6.03711 38.5076 6.11613 38.6482 6.25678C38.7889 6.39743 38.8679 6.5882 38.8679 6.78711V21.6953C39.1564 21.8859 39.3964 22.1411 39.569 22.4406L45.3898 32.5225C46.0071 33.592 45.6394 34.9641 44.5702 35.5815ZM10.3219 7.53711V21.3367C10.6243 21.3719 10.9162 21.4687 11.1797 21.6211L14.4963 23.5359C15.0128 23.8341 15.3828 24.3171 15.5378 24.896C15.6337 25.2502 15.6408 25.6225 15.5586 25.9801L19.7168 27.4655C21.4707 25.8978 22.7644 25.3408 25.4332 25.9282C27.9351 26.479 30.0337 26.4841 32.1217 25.9346C32.05 25.5908 32.0603 25.235 32.1519 24.896C32.307 24.317 32.6769 23.834 33.1936 23.5358L36.5101 21.621C36.7735 21.4686 37.0654 21.3718 37.3678 21.3367V7.53711H10.3219ZM8.19607 35.9267L14.0168 25.8448C14.1147 25.6752 14.1404 25.4762 14.089 25.2844C14.0376 25.0925 13.9158 24.9329 13.7463 24.835L10.4298 22.9202C10.2599 22.8223 10.0582 22.7958 9.86884 22.8465C9.67949 22.8972 9.51802 23.021 9.41988 23.1907L3.59913 33.2726C3.39532 33.6257 3.51672 34.0787 3.86969 34.2824L7.18629 36.1973C7.2703 36.2458 7.3631 36.2772 7.45932 36.2896C7.55554 36.302 7.65327 36.2951 7.74682 36.2694C7.93863 36.218 8.09819 36.0964 8.19607 35.9267ZM14.6293 42.0247L16.353 39.5742L16.3533 39.5737C16.877 38.8265 16.2405 38.3226 16.1075 38.2292C15.9745 38.1356 15.2844 37.7072 14.7586 38.4547L13.0361 40.9034C12.5101 41.6512 13.147 42.1559 13.28 42.2495C13.413 42.3431 14.1027 42.7717 14.6288 42.0253L14.6293 42.0247ZM17.0851 44.5268L19.4929 41.1036L19.859 40.5831C20.3851 39.8353 19.748 39.3306 19.615 39.2371C19.4819 39.1434 18.7916 38.7145 18.2655 39.4623L17.5804 40.4362L17.5802 40.4367L17.5799 40.4372L15.8562 42.8877L15.3453 43.614C14.8193 44.3619 15.4563 44.8666 15.5894 44.9601C15.7224 45.0536 16.4128 45.4824 16.9388 44.7349L17.0851 44.5268ZM20.451 45.7351L20.4527 45.7328L21.3164 44.5048L22.3127 43.0884C22.8385 42.3408 22.2018 41.8361 22.0688 41.7425C21.936 41.6491 21.2465 41.2203 20.7206 41.9657L20.7198 41.9668L18.3121 45.3899L18.3116 45.3906C17.7869 46.1379 18.4234 46.6422 18.5565 46.7358C18.6895 46.8293 19.3799 47.2583 19.9058 46.5105L20.451 45.7351ZM23.8924 45.1427C23.7594 45.049 23.0695 44.6203 22.5437 45.3673L22.5433 45.3679L21.6796 46.5959C21.46 46.9081 21.418 47.216 21.5549 47.5113C21.712 47.8501 22.0817 48.1101 22.4537 48.1434C22.7777 48.1725 23.0534 48.0289 23.273 47.7167L24.1367 46.4888C24.6625 45.741 24.0255 45.2362 23.8924 45.1427ZM34.7776 37.8313L25.5032 32.4629C24.6694 31.9814 23.8453 32.3284 22.5695 32.9339C22.5076 32.9632 22.4457 32.9927 22.3836 33.0219C22.2905 33.2089 22.1966 33.4096 22.0988 33.6185C21.6171 34.6476 21.0711 35.814 20.1267 36.3238C19.0151 36.9237 18.0231 37.0153 17.3335 36.5814C17.0161 36.3816 16.4913 35.8851 16.5425 34.8035L16.7411 30.6231C16.7501 30.4326 16.8315 30.2527 16.9685 30.12C17.3586 29.7423 17.7086 29.3974 18.0471 29.0639C18.2019 28.9115 18.3509 28.7647 18.4963 28.6222L14.8892 27.3336L10.1983 35.4586L12.7716 38.6721L13.5317 37.5916C14.4606 36.2706 15.9646 36.2952 16.97 37.0017C17.2973 37.2317 17.5744 37.5358 17.7674 37.887C18.6412 37.3265 19.7064 37.4673 20.478 38.01C21.1254 38.4653 21.5764 39.2111 21.5675 40.037C22.0563 40.0616 22.5333 40.2349 22.9322 40.5155C23.8218 41.1417 24.3404 42.3159 23.8036 43.4935C24.1456 43.5702 24.4691 43.7136 24.7555 43.9156C25.6119 44.5181 26.1239 45.6282 25.6832 46.7604L27.6208 47.8887C28.411 48.3486 28.8591 47.671 28.941 47.5305C29.0228 47.39 29.3909 46.6665 28.6027 46.2061L28.6017 46.2054L28.6014 46.2052H28.6013L26.1046 44.7515C26.0185 44.7025 25.9429 44.6369 25.8823 44.5585C25.8218 44.4801 25.7773 44.3904 25.7516 44.2947C25.7258 44.199 25.7193 44.0992 25.7323 44.001C25.7454 43.9028 25.7778 43.8081 25.8277 43.7225C25.8775 43.6368 25.9439 43.5619 26.0229 43.5021C26.1018 43.4422 26.1919 43.3986 26.2878 43.3738C26.3837 43.349 26.4836 43.3434 26.5817 43.3574C26.6798 43.3714 26.7742 43.4047 26.8593 43.4554L29.3561 44.9091L29.3565 44.9093L29.3568 44.9095L29.3584 44.9105L30.1392 45.3652C30.9292 45.8251 31.3774 45.1475 31.4594 45.007C31.5412 44.8665 31.9092 44.1429 31.121 43.6825L31.1199 43.6819L31.1197 43.6818L31.1192 43.6814L28.0584 41.8992C27.9723 41.8502 27.8968 41.7845 27.8362 41.7061C27.7756 41.6277 27.7311 41.5381 27.7054 41.4424C27.6797 41.3467 27.6731 41.2469 27.6862 41.1486C27.6993 41.0504 27.7317 40.9557 27.7815 40.8701C27.8314 40.7845 27.8977 40.7096 27.9767 40.6497C28.0557 40.5899 28.1457 40.5463 28.2417 40.5215C28.3376 40.4966 28.4375 40.491 28.5356 40.505C28.6337 40.519 28.728 40.5523 28.8132 40.603L31.8748 42.3857L31.875 42.3858C31.8755 42.3861 31.8761 42.3864 31.8767 42.3868L32.8565 42.9574C33.1865 43.1495 33.4969 43.1648 33.7793 43.0032C34.1035 42.8177 34.3308 42.4271 34.3322 42.0536C34.3334 41.7282 34.1667 41.4658 33.8368 41.2737L33.0453 40.8128L33.0447 40.8125L33.044 40.8121L33.0437 40.8118L30.0123 39.0469C29.9262 38.9978 29.8507 38.9322 29.7901 38.8538C29.7295 38.7754 29.6851 38.6857 29.6593 38.59C29.6336 38.4944 29.6271 38.3945 29.6401 38.2963C29.6532 38.1981 29.6856 38.1034 29.7355 38.0178C29.7853 37.9321 29.8517 37.8572 29.9306 37.7974C30.0096 37.7376 30.0997 37.694 30.1956 37.6691C30.2915 37.6443 30.3914 37.6387 30.4895 37.6527C30.5876 37.6667 30.682 37.7 30.7671 37.7507L33.7984 39.5156C34.5887 39.9746 35.0362 39.2968 35.118 39.1563C35.1995 39.0156 35.5673 38.2912 34.7776 37.8313ZM37.353 35.2188L32.7858 27.3081C29.6359 28.1974 26.9184 27.7911 25.1108 27.3932C22.4702 26.8122 21.8232 27.4496 19.0999 30.1326C18.8093 30.4195 18.5177 30.7055 18.2253 30.9905L18.0408 34.8749C18.0288 35.1295 18.0781 35.2779 18.1323 35.312C18.2592 35.3917 18.7196 35.379 19.4142 35.004C19.9227 34.7295 20.357 33.8015 20.7403 32.9827C20.8793 32.6855 21.0232 32.3784 21.1713 32.0993C21.2484 31.9545 21.3707 31.8388 21.5196 31.7701C21.6555 31.7071 21.7911 31.6434 21.9262 31.5788C23.224 30.9627 24.6949 30.2644 26.2539 31.1643L35.1774 36.3295L37.353 35.2188ZM44.0907 33.2725L38.27 23.1907C38.0662 22.8377 37.6131 22.7164 37.2602 22.9202L33.9436 24.835C33.774 24.9329 33.6523 25.0925 33.6008 25.2844C33.5494 25.4762 33.575 25.6752 33.673 25.8448L39.4938 35.9268C39.5916 36.0964 39.7513 36.218 39.9431 36.2694C40.0366 36.2952 40.1343 36.302 40.2306 36.2897C40.3268 36.2773 40.4196 36.2459 40.5035 36.1973L43.8202 34.2825C44.1732 34.0787 44.2946 33.6256 44.0907 33.2725Z" fill="white"/>
</g>
<defs>
<clipPath id="clip0_212_743">
<rect width="48" height="48" fill="white" transform="translate(0 0.0371094)"/>
</clipPath>
</defs>
</svg>

<svg width="48" height="49" fill="none" xmlns="http://www.w3.org/2000/svg"><g clip-path="url(#a)"><path d="M21.006 12.598a.75.75 0 0 1 .75-.75h11.73a.75.75 0 0 1 0 1.5h-11.73a.75.75 0 0 1-.75-.75zm-6.183 1.599a.747.747 0 0 0 1.06 0l2.3-2.299a.75.75 0 1 0-1.06-1.06l-1.77 1.768-.619-.619a.75.75 0 1 0-1.06 1.06l1.15 1.15zm6.933 7.15h11.73a.75.75 0 0 0 0-1.5h-11.73a.75.75 0 1 0 0 1.5zm-6.933.93a.748.748 0 0 0 1.06 0l2.3-2.3a.75.75 0 1 0-1.06-1.06l-1.77 1.769-.619-.62a.75.75 0 1 0-1.06 1.061l1.15 1.15zM44.57 35.58l-3.316 1.915a2.22 2.22 0 0 1-1.7.222 2.224 2.224 0 0 1-1.36-1.041l-.09-.157-1.678.856c.502.796.43 1.776-.012 2.534-.221.381-.538.71-.917.936.22.36.337.773.335 1.213a2.64 2.64 0 0 1-1.308 2.246c-.44.252-.925.349-1.412.293-.025.409-.15.81-.356 1.164-.436.747-1.237 1.288-2.158 1.264-.01.442-.139.879-.36 1.26-.426.73-1.2 1.264-2.095 1.264-.407 0-.84-.11-1.277-.365l-1.98-1.153-.386.548c-.483.686-1.19 1.067-1.965 1.067a2.643 2.643 0 0 1-2.316-1.454c-.836.431-1.808.274-2.526-.23a2.587 2.587 0 0 1-.991-1.347c-.69.15-1.411-.032-1.976-.429-.703-.495-1.175-1.332-1.076-2.242a2.638 2.638 0 0 1-1.233-.468c-1.005-.708-1.537-2.115-.608-3.436l.064-.091-2.486-3.105c-.3.428-.738.736-1.252.873a2.22 2.22 0 0 1-1.699-.222L3.12 35.581a2.242 2.242 0 0 1-.82-3.058L8.12 22.44c.173-.3.414-.555.702-.746V6.787a.75.75 0 0 1 .75-.75h28.546a.75.75 0 0 1 .75.75v14.908c.288.19.528.446.701.746l5.82 10.082a2.242 2.242 0 0 1-.819 3.058zM10.322 7.537v13.8c.302.035.594.132.858.284l3.316 1.915c.517.298.887.781 1.042 1.36.096.354.103.726.02 1.084l4.159 1.485c1.754-1.567 3.047-2.124 5.716-1.537 2.502.551 4.6.556 6.689.007-.072-.344-.062-.7.03-1.039a2.223 2.223 0 0 1 1.042-1.36l3.316-1.915c.264-.152.555-.25.858-.284v-13.8H10.322zm-2.126 28.39 5.82-10.082a.733.733 0 0 0 .073-.56.734.734 0 0 0-.343-.45L10.43 22.92a.74.74 0 0 0-1.01.27L3.6 33.274a.74.74 0 0 0 .27 1.01l3.316 1.914a.734.734 0 0 0 .56.072.733.733 0 0 0 .45-.342zm6.433 6.098 1.724-2.45v-.001c.524-.747-.113-1.251-.245-1.345-.133-.093-.824-.522-1.35.226l-1.722 2.448c-.526.748.111 1.253.244 1.346.133.094.823.523 1.349-.224zm2.456 2.502 2.408-3.423.366-.52c.526-.749-.111-1.253-.244-1.347-.133-.094-.823-.523-1.35.225l-.685.974v.001l-1.724 2.45-.51.727c-.527.748.11 1.253.243 1.346.133.094.824.522 1.35-.225l.146-.208zm3.366 1.208.002-.002.863-1.228.997-1.417c.526-.747-.111-1.252-.244-1.346-.133-.093-.822-.522-1.348.224h-.001l-2.408 3.424c-.525.748.111 1.252.244 1.346.133.093.824.522 1.35-.225l.545-.776zm3.441-.592c-.133-.094-.822-.523-1.348.224l-.864 1.229c-.22.312-.262.62-.125.915.157.34.527.6.899.632.324.03.6-.114.819-.426l.864-1.228c.526-.748-.111-1.253-.245-1.346zm10.886-7.312-9.275-5.368c-.834-.482-1.658-.135-2.933.47l-.186.089c-.093.187-.187.388-.285.596-.482 1.03-1.028 2.196-1.972 2.706-1.112.6-2.104.691-2.793.257-.318-.2-.843-.696-.791-1.778l.198-4.18a.75.75 0 0 1 .227-.503c.39-.378.74-.723 1.08-1.056l.448-.442-3.607-1.288-4.69 8.125 2.573 3.213.76-1.08c.929-1.321 2.433-1.297 3.438-.59.327.23.604.534.797.885.874-.56 1.94-.42 2.711.123.647.455 1.098 1.201 1.09 2.027a2.62 2.62 0 0 1 1.364.479c.89.626 1.408 1.8.872 2.977.342.077.665.22.952.423.856.602 1.368 1.712.927 2.844l1.938 1.129c.79.46 1.238-.218 1.32-.358.082-.141.45-.864-.338-1.325h-.001l-2.497-1.455a.75.75 0 1 1 .754-1.296l2.497 1.454.002.002.781.454c.79.46 1.238-.218 1.32-.358.082-.14.45-.864-.338-1.325h-.001l-3.062-1.783a.75.75 0 1 1 .755-1.296l3.062 1.783h.002l.98.571c.33.193.64.208.922.046.324-.185.552-.576.553-.95.001-.325-.165-.587-.495-.78l-.792-.46h-.001v-.001l-3.032-1.765a.751.751 0 1 1 .755-1.296l3.031 1.765c.79.459 1.238-.22 1.32-.36.081-.14.45-.865-.34-1.325zm2.575-2.612-4.567-7.91c-3.15.888-5.868.482-7.675.084-2.64-.58-3.288.057-6.011 2.74-.29.287-.582.573-.875.858l-.184 3.884c-.012.255.037.403.091.437.127.08.588.067 1.282-.308.509-.274.943-1.203 1.326-2.021.14-.297.283-.605.431-.884.077-.144.2-.26.349-.329l.406-.191c1.298-.616 2.769-1.315 4.328-.415l8.923 5.166 2.176-1.111zm6.738-1.947L38.27 23.192a.74.74 0 0 0-1.01-.27l-3.316 1.914a.734.734 0 0 0-.343.45.733.733 0 0 0 .072.56l5.82 10.082c.099.17.258.291.45.342a.732.732 0 0 0 .56-.072l3.317-1.915a.74.74 0 0 0 .27-1.01z" fill="#fff"/></g><defs><clipPath id="a"><path fill="#fff" transform="translate(0 .037)" d="M0 0h48v48H0z"/></clipPath></defs></svg>
